packages/symbols/svgs/outline/code-outline.svg

<svg width="24" height="24" viewBox="0 0 24 24" fill="none" xmlns="http://www.w3.org/2000/svg">
<path fill-rule="evenodd" clip-rule="evenodd" d="M6.70711 7.29289C7.09763 7.68342 7.09763 8.31658 6.70711 8.70711L3.41421 12L6.70711 15.2929C7.09763 15.6834 7.09763 16.3166 6.70711 16.7071C6.31658 17.0976 5.68342 17.0976 5.29289 16.7071L1.29289 12.7071C0.902369 12.3166 0.902369 11.6834 1.29289 11.2929L5.29289 7.29289C5.68342 6.90237 6.31658 6.90237 6.70711 7.29289Z" fill="black"/>
<path fill-rule="evenodd" clip-rule="evenodd" d="M17.2929 7.29289C17.6834 6.90237 18.3166 6.90237 18.7071 7.29289L22.7071 11.2929C23.0976 11.6834 23.0976 12.3166 22.7071 12.7071L18.7071 16.7071C18.3166 17.0976 17.6834 17.0976 17.2929 16.7071C16.9024 16.3166 16.9024 15.6834 17.2929 15.2929L20.5858 12L17.2929 8.70711C16.9024 8.31658 16.9024 7.68342 17.2929 7.29289Z" fill="black"/>
<path fill-rule="evenodd" clip-rule="evenodd" d="M14.2425 3.02985C14.7783 3.1638 15.1041 3.70673 14.9701 4.24253L10.9701 20.2425C10.8362 20.7783 10.2933 21.1041 9.75746 20.9701C9.22166 20.8362 8.8959 20.2933 9.02985 19.7575L13.0299 3.75746C13.1638 3.22166 13.7067 2.8959 14.2425 3.02985Z" fill="black"/>
</svg>

<svg width="24" height="24" viewBox="0 0 24 24" xmlns="http://www.w3.org/2000/svg"><path fill-rule="evenodd" clip-rule="evenodd" d="M6.707 7.293a1 1 0 0 1 0 1.414L3.414 12l3.293 3.293a1 1 0 1 1-1.414 1.414l-4-4a1 1 0 0 1 0-1.414l4-4a1 1 0 0 1 1.414 0Zm10.586 0a1 1 0 0 1 1.414 0l4 4a1 1 0 0 1 0 1.414l-4 4a1 1 0 0 1-1.414-1.414L20.586 12l-3.293-3.293a1 1 0 0 1 0-1.414ZM14.242 3.03a1 1 0 0 1 .728 1.213l-4 16a1 1 0 1 1-1.94-.485l4-16a1 1 0 0 1 1.213-.728Z"/></svg>
